static/assets/icons/alby-logo-text-dark.svg

<svg xmlns="http://www.w3.org/2000/svg" width="1211" height="525" fill="none"><path fill="#fff" stroke="#fff" stroke-width="19.962" d="M90.151 181.767c7.255.742 14.267-.106 20.688-2.272l.151.137.243.242c-27.306 31.046-46.57 71.225-54.521 115.69-5.634 31.47 11.252 61.729 39.21 75.041 45.57 21.688 96.546 33.818 150.295 33.818 53.748 0 103.68-11.888 148.887-33.151 28.063-13.206 45.07-43.45 39.527-74.966-7.86-44.707-27.533-84.825-54.581-116.341-34.151-39.815.106-.167.106-.167s11.737 2.544 18.037 2.105c24.307-1.681 43.904-21.535 45.267-45.873 1.621-29.153-22.368-53.127-51.522-51.492-24.004 1.348-43.737 20.476-45.782 44.435-.636 7.466.424 14.645 2.832 21.172l-.394.394-.227.227c-29.471-21.733-64.622-34.545-102.741-34.545s-73.512 12.903-103.059 34.787l-.227-.227-.364-.363-.712-.712a48.862 48.862 0 0 0 2.636-20.991c-2.166-23.837-21.854-42.814-45.752-44.161-29.214-1.636-53.203 22.353-51.568 51.537 1.333 23.686 19.96 43.253 43.556 45.691l.015-.015Z"/><path fill="#FFDF6F" fill-rule="evenodd" d="M105.054 351.417c-19.764-9.405-31.259-30.531-27.412-52.082 8.042-45.01 28.502-84.538 56.883-113.252a182.681 182.681 0 0 1 13.539-12.388c27.7-22.823 61.291-36.181 97.501-36.181 36.211 0 69.56 13.267 97.199 35.939a179.023 179.023 0 0 1 13.569 12.358c28.669 28.88 49.296 68.771 57.277 114.205 3.802 21.581-7.799 42.708-27.623 52.037-42.436 19.961-89.823 31.122-139.816 31.122-49.992 0-98.379-11.388-141.148-31.758h.031Z" clip-rule="evenodd"/><path fill="#000" d="m95.649 121.279-12.964 12.964 30.834 30.835a36.788 36.788 0 0 0 13.116-12.813l-30.986-30.986Z"/><path fill="#000" fill-rule="evenodd" d="M395.361 96.609c-19.839-.333-37.104 16.447-37.301 36.286a36.485 36.485 0 0 0 5.543 19.764l31.364-31.365 12.964 12.964-31.062 31.047c6.149 3.422 13.388 5.149 21.051 4.498 17.659-1.5 31.925-15.826 33.349-33.485 1.726-21.415-14.963-39.36-35.908-39.71Zm-31.758 56.05-14.297 14.281c4.695 3.877 9.208 8.027 13.54 12.389l14.023-14.024a36.761 36.761 0 0 1-13.266-12.646Zm59.064 145.782c-8.254-46.978-29.714-88.732-59.821-119.112l-6.482 6.482a179.014 179.014 0 0 0-13.57-12.343l6.512-6.528c-29.199-24.231-64.879-38.573-103.725-38.573-38.846 0-74.754 14.433-104.014 38.831l6.513 6.512a176.616 176.616 0 0 0-13.54 12.388l-6.482-6.482c-29.82 30.199-51.113 71.574-59.442 118.129-4.604 25.806 9.208 50.87 32.5 61.956 43.965 20.93 93.17 32.652 145.086 32.652 51.915 0 100.09-11.479 143.722-32 23.368-11.011 37.301-36.06 32.743-61.912Zm-40.557 45.313c-41.224 19.415-87.294 30.259-135.908 30.259-48.615 0-95.639-11.071-137.211-30.865-16.22-7.724-25.412-24.913-22.323-42.178 7.77-43.465 27.397-81.16 54.354-108.405l13.585-12.328c26.109-21.248 57.519-33.545 90.974-33.545 33.454 0 64.622 12.191 90.686 33.288l13.615 12.313c27.23 27.396 47.024 65.439 54.732 109.313 3.045 17.311-6.224 34.5-22.504 42.148ZM126.65 152.28a36.917 36.917 0 0 1-13.115 12.813l14.523 14.523a186.482 186.482 0 0 1 13.509-12.418L126.65 152.28Zm0 0a36.555 36.555 0 0 0 5.3-19.718c-.393-20.067-17.34-36.347-37.407-35.953-20.915.424-37.528 18.34-35.802 39.709 1.44 17.749 15.842 32.107 33.591 33.5a36.827 36.827 0 0 0 21.203-4.725L82.7 134.258l12.964-12.964 30.986 30.986Z" clip-rule="evenodd"/><path fill="#000" fill-rule="evenodd" d="m407.931 134.258-31.061 31.047a36.756 36.756 0 0 1-13.267-12.646l31.364-31.364 12.964 12.963ZM362.845 179.329l-6.481 6.482a179.225 179.225 0 0 0-13.57-12.343l6.512-6.528c4.695 3.877 9.208 8.027 13.539 12.389ZM148.08 173.71a176.616 176.616 0 0 0-13.54 12.388l-6.482-6.482a186.482 186.482 0 0 1 13.509-12.418l6.513 6.512ZM126.65 152.28a36.917 36.917 0 0 1-13.115 12.813L82.7 134.258l12.964-12.963 30.986 30.985Z" clip-rule="evenodd"/><path fill="#000" fill-rule="evenodd" d="M407.931 134.243 376.87 165.29a36.756 36.756 0 0 1-13.267-12.646l31.364-31.365 12.964 12.964Z" clip-rule="evenodd"/><path fill="#000" d="m349.306 166.925-6.527 6.528a179.023 179.023 0 0 1 13.569 12.358l6.482-6.482a185.622 185.622 0 0 0-13.524-12.389v-.015ZM141.552 167.183a189.529 189.529 0 0 0-13.509 12.418l6.482 6.482a182.48 182.48 0 0 1 13.539-12.388l-6.512-6.512Z"/><path fill="#000" fill-rule="evenodd" d="M140.946 329.064c-15.901-6.482-25.336-23.399-19.824-39.664 16.992-50.159 66.576-86.476 125.095-86.476 58.519 0 108.102 36.302 125.11 86.476 5.512 16.265-3.923 33.197-19.825 39.664-32.485 13.236-68.029 20.521-105.27 20.521s-72.785-7.285-105.27-20.521h-.016Z" clip-rule="evenodd"/><path fill="#fff" d="M288.395 305.59c16.878 0 30.562-10.944 30.562-24.444 0-13.5-13.684-24.443-30.562-24.443-16.879 0-30.562 10.943-30.562 24.443 0 13.5 13.683 24.444 30.562 24.444ZM200.919 305.605c16.879 0 30.562-10.944 30.562-24.444 0-13.5-13.683-24.443-30.562-24.443s-30.562 10.943-30.562 24.443c0 13.5 13.683 24.444 30.562 24.444ZM674.301 263.384h-42.548l20.794-59.184 21.754 59.184Zm-49.906-128.925L542.817 352h57.904l15.036-42.868h75.18l15.676 46.067 57.264-5.758-81.258-214.982h-58.224ZM838.077 352V126.142l-58.224 3.519V352h58.224Zm61.345 0 28.792-29.112V126.142l-58.224 3.519V352h29.432Zm9.918-94.694c6.185-6.398 11.943-11.517 17.275-15.356 5.332-3.839 10.557-5.758 15.676-5.758 6.185 0 11.303 1.386 15.355 4.159 4.266 2.772 7.465 6.931 9.598 12.476 2.346 5.332 3.519 11.943 3.519 19.835 0 7.891-1.173 14.716-3.519 20.474-2.346 5.759-5.439 10.131-9.278 13.116-3.839 2.986-8.211 4.479-13.116 4.479-5.545 0-11.304-1.493-17.275-4.479-5.972-3.199-12.05-7.677-18.235-13.436l-16.316 34.231c5.972 6.825 11.943 12.37 17.915 16.635 6.185 4.052 12.37 7.038 18.555 8.958 6.398 1.919 12.797 2.879 19.195 2.879 16.422 0 30.711-3.092 42.868-9.277 12.373-6.185 21.963-15.463 28.793-27.833 7.04-12.37 10.56-27.726 10.56-46.067 0-18.555-3.52-33.804-10.56-45.748-6.83-11.943-16.21-20.794-28.153-26.552-11.943-5.759-25.593-8.638-40.949-8.638-7.891 0-15.569 1.386-23.034 4.159-7.464 2.772-14.289 6.398-20.474 10.877-5.972 4.265-10.877 8.744-14.716 13.436l16.316 37.43Zm179.15 95.334c-1.06 2.986-3.84 5.972-8.31 8.957-4.48 2.986-9.6 5.759-15.36 8.318a469.514 469.514 0 0 1-16 7.038l19.52 45.108c10.24-2.346 20.15-5.972 29.75-10.877 9.6-4.905 18.02-10.877 25.27-17.915 7.26-7.038 12.48-14.716 15.68-23.034l68.14-173.393h-57.9l-29.76 87.656-31.67-93.414-53.74 15.356 55.66 142.681-1.28 3.519Z"/></svg>

<svg width="1211" height="525" viewBox="0 0 1211 525" fill="none" xmlns="http://www.w3.org/2000/svg">
<path d="M90.1513 181.767C97.4056 182.509 104.418 181.661 110.839 179.495L110.99 179.632L111.233 179.874C83.9269 210.92 64.6629 251.099 56.712 295.564C51.0782 327.034 67.9644 357.293 95.9214 370.605C141.492 392.293 192.468 404.423 246.217 404.423C299.965 404.423 349.897 392.535 395.104 371.272C423.167 358.066 440.174 327.822 434.631 296.306C426.771 251.599 407.098 211.481 380.05 179.965C345.899 140.15 380.156 179.798 380.156 179.798C380.156 179.798 391.893 182.342 398.193 181.903C422.5 180.222 442.097 160.368 443.46 136.03C445.081 106.877 421.092 82.9028 391.938 84.5384C367.934 85.8863 348.201 105.014 346.156 128.973C345.52 136.439 346.58 143.618 348.988 150.145L348.594 150.539L348.367 150.766C318.896 129.033 283.745 116.221 245.626 116.221C207.507 116.221 172.114 129.124 142.567 151.008L142.34 150.781L141.976 150.418L141.264 149.706C143.582 143.224 144.581 136.106 143.9 128.715C141.734 104.878 122.046 85.9015 98.1477 84.5536C68.9337 82.918 44.9446 106.907 46.5802 136.091C47.9129 159.777 66.5408 179.344 90.1362 181.782L90.1513 181.767Z" fill="white" stroke="white" stroke-width="19.962"/>
<path fill-rule="evenodd" clip-rule="evenodd" d="M105.054 351.417C85.2898 342.012 73.795 320.886 77.6418 299.335C85.6836 254.325 106.144 214.797 134.525 186.083C138.856 181.691 143.385 177.572 148.064 173.695C175.764 150.872 209.355 137.514 245.565 137.514C281.776 137.514 315.125 150.781 342.764 173.453C347.459 177.299 351.987 181.434 356.333 185.811C385.002 214.691 405.629 254.582 413.61 300.016C417.412 321.597 405.811 342.724 385.987 352.053C343.551 372.014 296.164 383.175 246.171 383.175C196.179 383.175 147.792 371.787 105.023 351.417H105.054Z" fill="#FFDF6F"/>
<path d="M95.6486 121.279L82.6848 134.243L113.519 165.078C118.896 161.988 123.424 157.566 126.635 152.265L95.6486 121.279Z" fill="black"/>
<path fill-rule="evenodd" clip-rule="evenodd" d="M395.361 96.6087C375.522 96.2756 358.257 113.056 358.06 132.895C357.984 140.15 360.029 146.934 363.603 152.659L394.967 121.294L407.931 134.258L376.869 165.305C383.018 168.727 390.257 170.454 397.92 169.803C415.579 168.303 429.845 153.977 431.269 136.318C432.995 114.903 416.306 96.9571 395.361 96.6087ZM363.603 152.659L349.306 166.94C354.001 170.817 358.514 174.967 362.846 179.329L376.869 165.305C371.448 162.276 366.874 157.914 363.603 152.659ZM422.667 298.441C414.413 251.463 392.953 209.709 362.846 179.329L356.364 185.811C352.017 181.434 347.489 177.314 342.794 173.468L349.306 166.94C320.107 142.709 284.427 128.367 245.581 128.367C206.735 128.367 170.827 142.8 141.567 167.198L148.08 173.71C143.385 177.572 138.872 181.706 134.54 186.098L128.058 179.616C98.2385 209.815 76.9452 251.19 68.6156 297.745C64.0117 323.551 77.8236 348.615 101.116 359.701C145.081 380.631 194.286 392.353 246.202 392.353C298.117 392.353 346.292 380.874 389.924 360.353C413.292 349.342 427.225 324.293 422.667 298.441ZM382.11 343.754C340.886 363.169 294.816 374.013 246.202 374.013C197.587 374.013 150.563 362.942 108.991 343.148C92.7713 335.424 83.5785 318.235 86.668 300.97C94.4372 257.505 114.065 219.81 141.022 192.565L154.607 180.237C180.716 158.989 212.126 146.692 245.581 146.692C279.035 146.692 310.203 158.883 336.267 179.98L349.882 192.293C377.112 219.689 396.906 257.732 404.614 301.606C407.659 318.917 398.39 336.106 382.11 343.754ZM126.65 152.28C123.439 157.581 118.911 161.988 113.535 165.093L128.058 179.616C132.39 175.225 136.888 171.09 141.567 167.198L126.65 152.28ZM126.65 152.28C130.133 146.541 132.087 139.771 131.95 132.562C131.557 112.495 114.61 96.215 94.5432 96.6087C73.6285 97.0328 57.0148 114.949 58.7413 136.318C60.1801 154.067 74.5826 168.425 92.3321 169.818C100.086 170.424 107.371 168.606 113.535 165.093L82.7001 134.258L95.6639 121.294L126.65 152.28Z" fill="black"/>
<path fill-rule="evenodd" clip-rule="evenodd" d="M407.931 134.258L376.87 165.305C371.448 162.276 366.874 157.914 363.603 152.659L394.967 121.295L407.931 134.258Z" fill="black"/>
<path fill-rule="evenodd" clip-rule="evenodd" d="M362.845 179.329L356.364 185.811C352.017 181.434 347.489 177.315 342.794 173.468L349.306 166.94C354.001 170.817 358.514 174.967 362.845 179.329Z" fill="black"/>
<path fill-rule="evenodd" clip-rule="evenodd" d="M148.08 173.71C143.385 177.572 138.872 181.706 134.54 186.098L128.058 179.616C132.39 175.225 136.888 171.09 141.567 167.198L148.08 173.71Z" fill="black"/>
<path fill-rule="evenodd" clip-rule="evenodd" d="M126.65 152.28C123.439 157.581 118.911 161.988 113.535 165.093L82.7002 134.258L95.664 121.295L126.65 152.28Z" fill="black"/>
<path fill-rule="evenodd" clip-rule="evenodd" d="M407.931 134.243L376.87 165.29C371.448 162.261 366.874 157.899 363.603 152.644L394.967 121.279L407.931 134.243Z" fill="black"/>
<path d="M349.306 166.925L342.779 173.453C347.474 177.299 352.002 181.434 356.348 185.811L362.83 179.329C358.499 174.952 353.986 170.817 349.306 166.94V166.925Z" fill="black"/>
<path d="M141.552 167.183C136.872 171.075 132.374 175.225 128.043 179.601L134.525 186.083C138.856 181.691 143.384 177.572 148.064 173.695L141.552 167.183Z" fill="black"/>
<path fill-rule="evenodd" clip-rule="evenodd" d="M140.946 329.064C125.045 322.582 115.61 305.665 121.122 289.4C138.114 239.241 187.698 202.924 246.217 202.924C304.736 202.924 354.319 239.226 371.327 289.4C376.839 305.665 367.404 322.597 351.502 329.064C319.017 342.3 283.473 349.585 246.232 349.585C208.991 349.585 173.447 342.3 140.962 329.064H140.946Z" fill="black"/>
<path d="M288.395 305.59C305.273 305.59 318.957 294.646 318.957 281.146C318.957 267.646 305.273 256.703 288.395 256.703C271.516 256.703 257.833 267.646 257.833 281.146C257.833 294.646 271.516 305.59 288.395 305.59Z" fill="white"/>
<path d="M200.919 305.605C217.798 305.605 231.481 294.661 231.481 281.161C231.481 267.661 217.798 256.718 200.919 256.718C184.04 256.718 170.357 267.661 170.357 281.161C170.357 294.661 184.04 305.605 200.919 305.605Z" fill="white"/>
<path d="M674.301 263.384H631.753L652.547 204.2L674.301 263.384ZM624.395 134.459L542.817 352H600.721L615.757 309.132H690.937L706.613 355.199L763.877 349.441L682.619 134.459H624.395ZM838.077 352V126.142L779.853 129.661V352H838.077ZM899.422 352L928.214 322.888V126.142L869.99 129.661V352H899.422ZM909.34 257.306C915.525 250.908 921.283 245.789 926.615 241.95C931.947 238.111 937.172 236.192 942.291 236.192C948.476 236.192 953.594 237.578 957.646 240.351C961.912 243.123 965.111 247.282 967.244 252.827C969.59 258.159 970.763 264.77 970.763 272.662C970.763 280.553 969.59 287.378 967.244 293.136C964.898 298.895 961.805 303.267 957.966 306.252C954.127 309.238 949.755 310.731 944.85 310.731C939.305 310.731 933.546 309.238 927.575 306.252C921.603 303.053 915.525 298.575 909.34 292.816L893.024 327.047C898.996 333.872 904.967 339.417 910.939 343.682C917.124 347.734 923.309 350.72 929.494 352.64C935.892 354.559 942.291 355.519 948.689 355.519C965.111 355.519 979.4 352.427 991.557 346.242C1003.93 340.057 1013.52 330.779 1020.35 318.409C1027.39 306.039 1030.91 290.683 1030.91 272.342C1030.91 253.787 1027.39 238.538 1020.35 226.594C1013.52 214.651 1004.14 205.8 992.197 200.042C980.254 194.283 966.604 191.404 951.248 191.404C943.357 191.404 935.679 192.79 928.214 195.563C920.75 198.335 913.925 201.961 907.74 206.44C901.768 210.705 896.863 215.184 893.024 219.876L909.34 257.306ZM1088.49 352.64C1087.43 355.626 1084.65 358.612 1080.18 361.597C1075.7 364.583 1070.58 367.356 1064.82 369.915C1059.27 372.474 1053.94 374.82 1048.82 376.953L1068.34 422.061C1078.58 419.715 1088.49 416.089 1098.09 411.184C1107.69 406.279 1116.11 400.307 1123.36 393.269C1130.62 386.231 1135.84 378.553 1139.04 370.235L1207.18 196.842H1149.28L1119.52 284.498L1087.85 191.084L1034.11 206.44L1089.77 349.121L1088.49 352.64Z" fill="white"/>
</svg>
